X:32
T:The Morning Dew
M:C
L:1/8
C:Key of E Dorian / McCullough
S:BASS version (from Peter Cooper)
K:EDor
"Em"E3B BAFA|"Em"EB EB "D"AGFD|"Em"E3B BAFA|"G"BddB "D"AGFD|
"Em"E3B BAFA|"Em"EB EB "D"AGFD|"Em"E3B BAFA|"G"BddB "D"ADFA ||
"Em"B2 eB fB e(B|B2) dB "D"ADFA|"Em"B2 eB fBeB|"G"dcdB "D"ADFA|
"Em"B2 eB fB e(B|B2) dB "D"ADFA|"G"(3Bcd eg "D"fd ec|"Bm"dcdB ADFA||
"Em"BA GF EFGA|BE GB "D"AD FA|"Em"BA GF EFGA|"G"BddB "D"ADFA|
"Em"BA GF EFGA|BE GB "D"AD FA|"Em"BA GF EFGA|"G"BcdB "D"AGFD||
